X:1
T:Face to Face
T:Text: Carrie E. Breck (1855-1934) Tune: Grant C. Tullar (1869-1950)
T:87 87 Refrain FACE TO FACE www.hymnary.org/text/face_to_face_with_christ_my_savior
T:Face to Face
T:This hymn is in the public domain.  You may freely use this score for personal and congregational worship.  If you reproduce the score, please credit Hymnary.org as the source. 
T:This hymn is in the public domain.  You may freely use this score for personal and congregational worship.  If you reproduce the score, please credit Hymnary.org as the source. 
Z:This hymn is in the public domain.  You may freely use this score for personal and congregational worship.  If you reproduce the score, please credit Hymnary.org as the source.
%%score ( 1 2 ) ( 3 4 )
L:1/8
M:4/4
K:Ab
V:1 treble nm="Piano" snm="Pno."
V:2 treble 
V:3 bass nm="Piano" snm="Pno."
V:4 bass 
V:1
 [CE]3 [CE] [DF][CE][A,C][CA] | [DA]4 [DG]3 z | [DB]3 [DA] [DG][DF]EF | [CE]6 z2 | %4
w: 3~What re- joic- ing in his|pre- sence|when are ba- nished grief and|pain,|
w: 1~Face to face with Christ my|Sa- vior,|face to face- what will it|be|
w: 2~On- ly faint- ly now I|see him,|with the dark- ening veil bet-|ween;|
 [CE]3 [CE] [DF][CE][A,C][CA] | [DB]4 [DF]2 [=B,F][B,F] | [CE]2 [Ec]2 [Ec]3 [DB] | [CA]6 z2 || %8
w: when the crook- ed ways are|straight- ened and the|dark things shall be|plain.|
w: when with rap- ture I be-|hold him, Je- sus|Christ who died for|me?|
w: but a bles- sèd day is|co- ming when his|glo- ry shall be|seen.|
"^Refrain" [DB]3 [DB] [Ec][DB][CA][B,G] | [CA]4 [Ec]4 | [EB]3 [Ec] [=DB][DA][DG][DF] | E6 z2 | %12
w: Face to face I shall be-|hold him,|far be- yond the star- ry|sky;|
w: ||||
w: ||||
 [Ec]3 [Ec] [Fd][Ec][DB][CA] | [DB]4 [Fd]2 [=B,F][B,F] | [CE]2 [Ec]2 [Ec]3 [DB] | [CA]6 z2 |] %16
w: face to face in all his|glo- ry, I shall|see him by and|by!|
w: ||||
w: ||||
V:2
 x8 | x8 | x6 DD | x8 | x8 | x8 | x8 | x8 || x8 | x8 | x8 | (E2 C2 _D2) x2 | x8 | x8 | x8 | x8 |] %16
V:3
 [A,,A,]3 [A,,A,] [A,,A,][A,,A,][A,,E,][A,,E,] | (E,2 F,2) E,3 z | %2
 [E,G,]3 [E,B,] [E,B,][E,A,][E,G,][E,G,] | [A,,A,]6 z2 | %4
 [A,,A,]3 [A,,A,] [A,,A,][A,,A,][A,,E,][A,,E,] | [D,F,]4 [D,A,]2 [=D,A,][D,A,] | %6
 [E,A,]2 [E,A,]2 [E,G,]3 [E,G,] | [A,,A,]6 z2 || [E,G,]3 [E,G,] A,E,E,E, | [A,,E,]4 [A,,A,]4 | %10
 [B,,G,]3 [B,,A,] [B,,G,][B,,F,][B,,B,][B,,A,] | (G,2 A,2 B,2) z2 | %12
 [A,,A,]3 [A,,A,] [A,,A,][A,,A,][A,,E,][A,,E,] | [D,F,]4 [D,A,]2 [=D,A,][D,A,] | %14
 [E,A,]2 [E,A,]2 [E,G,]3 [E,G,] | [A,,E,A,]6 z2 |] %16
V:4
 x8 | B,,4 E,3 x | x8 | x8 | x8 | x8 | x8 | x8 || x4 E,E,E,E, | x8 | x8 | E,6 x2 | x8 | x8 | x8 | %15
 x8 |] %16

